X:1
T:Title
%%score 1 2 3
L:1/8
Q:1/4=150
M:3/2
K:Ab
V:1 treble nm="Picked Bass, Soprano Voice"
V:2 bass nm="Picked Bass, Melody"
V:3 bass nm="Picked Bass, Baritone Voice"
V:1
 z4 z4 F4 | A6 (3:2:2A2 B c4 | c8 f3 f | f8 c2 d2 | c8 B3 A | G8 z4 | A4 A4 A4 | A8 z4 | c4 c4 c4 | %9
 c8 z4 | c4 c4 c4 | c8 c2 B2 | A2 B2 c4 c4 | d4 c6 c2 | c12 |[M:4/4] c8 | c2 B2 A2 B2 | c3 d e4 | %18
[M:3/2] e8 z4 |[M:4/4] c4 c4 |[M:3/2] c8 z4 |[M:4/4] c4 c4 |[M:3/2] c8 z4 |[M:4/4] c4 c4 | %24
[M:3/2] c8 z4 |[M:4/4] c2 c2 c2 c2 | d2 cd e2 e2 |[M:3/2] f2 f2 e2 c2 c2 f2 | e8 f2 f2 | %29
 c2 c2 cd e2 f2 f2 | c2 c2 cd e2 f2 =e2 | f8 z4 |[M:4/4] e4 e4 | c4 c4 | c8 | z8 |] %36
V:2
 z4 z4 F,4 | C6[K:treble] C2 F4 | E8 D4 | C8 C2 B,2 | A,8 B,4 | C8 z4 | C4 C4 C4 | C8 z4 | %8
 E4 E4 E4 | E8 z4 | F4 F4 F4 | F8 F2 B,2 | E2 D2 C4[K:bass] A,4 | B,2 A,2 G,6 G,2 | F,12 | %15
[M:4/4][K:treble] C8 | E2 D2 C2 B,2 | A,4 B,4 |[M:3/2] C8 z4 |[M:4/4] E4 E4 |[M:3/2] C8 z4 | %21
[M:4/4] F4 F4 |[M:3/2] =E8 z4 |[M:4/4] =E4 E4 |[M:3/2] F8 z4 |[M:4/4] F2 F2 E2 C2 | B,DCB, C2 C2 | %27
[M:3/2] D2 C2[K:bass] B,2 A,2 G,2 F,2 | C8[K:treble] C2 C2 | F2 F2 EDCB, C2 C2 | %30
 F,2 G,2 A,2 G,2 A,2 B,2 | C8 z4 |[M:4/4] C4 B,4 | A,4 G,4 | F,8 | z8 |] %36
V:3
 z12 | [F,,F,]6 [F,,F,]2 [F,,F,]4 | C,8 B,,4 | [F,,F,]8 [A,,A,]2 [G,,G,]2 | [F,,F,]8 [G,,G,]4 | %5
 C,8 z4 | [F,,F,]4 [F,,F,]4 [F,,F,]4 | [F,,F,]8 z4 | C,4 C,4 C,4 | C,8 z4 | %10
 [F,,F,]4 [F,,F,]4 [F,,F,]4 | [F,,F,]8 [F,,F,]2 [G,,G,]2 | [A,,A,]2 [G,,G,]2 [A,,A,]4 [F,,F,]4 | %13
 B,,4 C,6 C,2 | F,12 |[M:4/4] [F,,F,]8 | C,2 F,2 A,2 G,2 | F,4 E,4 |[M:3/2] C,8 z4 | %19
[M:4/4] C,4 C,4 |[M:3/2] [F,,F,]8 z4 |[M:4/4] F,4 F,4 |[M:3/2] C,8 z4 |[M:4/4] C,4 C,4 | %24
[M:3/2] [F,,F,]8 z4 |[M:4/4] F,2 F,2 C,2 C,2 | F,2 F,2 E,2 C,2 |[M:3/2] F,2 A,2 G,2 F,2 E,2 D,2 | %28
 C,8 F,2 F,2 | F,2 F,2 C,2 C,2 F,2 F,2 | F,2 =E,2 F,2 C,2 F,2 G,2 | F,8 z4 |[M:4/4] [A,,A,]4 E,4 | %33
 F,4 C,4 | [F,,F,]8 | z8 |] %36

